src/assets/img/nftDashboard/shareNft/Vector.svg

<svg fill="none" height="12" viewBox="0 0 15 12" width="15" xmlns="http://www.w3.org/2000/svg"><path d="m5.1181 11.56c5.4376 0 8.4107-4.43305 8.4107-8.27506 0-.12666 0-.25332-.0061-.37395.5762-.41013 1.0789-.9228 1.4774-1.50785-.5272.22919-1.0973.38601-1.6981.45839.613-.36189 1.0789-.928842 1.2996-1.610391-.5701.331727-1.2015.572984-1.8758.705675-.5395-.566953-1.3058-.9167749-2.1579-.9167749-1.63064 0-2.95478 1.3027809-2.95478 2.9071409 0 .22919.02452.45236.0797.66346-2.45824-.12063-4.63448-1.27866-6.09349-3.039836-.25134.42823-.39847.928836-.39847 1.459606 0 1.00724.52108 1.89989 1.31801 2.41859-.48429-.01206-.93793-.14475-1.3364-.36188v.03619c0 1.41135 1.01763 2.58144 2.37242 2.85285-.24521.06635-.50882.10254-.77855.10254-.19004 0-.37394-.0181-.55785-.05428.37394 1.15803 1.46513 1.99639 2.75862 2.02052-1.01149.77805-2.28659 1.24246-3.67203 1.24246-.23908 0-.472032-.0121-.704982-.0422 1.293482.8323 2.850572 1.3148 4.518002 1.3148z" fill="#fff"/></svg>

<svg width="15" height="12" viewBox="0 0 15 12" fill="none" xmlns="http://www.w3.org/2000/svg">
<path d="M5.1181 11.56C10.5557 11.56 13.5288 7.12695 13.5288 3.28494C13.5288 3.15828 13.5288 3.03162 13.5227 2.91099C14.0989 2.50086 14.6016 1.98819 15.0001 1.40314C14.4729 1.63233 13.9028 1.78915 13.302 1.86153C13.915 1.49964 14.3809 0.932688 14.6016 0.251139C14.0315 0.582866 13.4001 0.824123 12.7258 0.956814C12.1863 0.389861 11.42 0.0400391 10.5679 0.0400391C8.93726 0.0400391 7.61312 1.34282 7.61312 2.94718C7.61312 3.17637 7.63764 3.39954 7.69282 3.61064C5.23458 3.49001 3.05834 2.33198 1.59933 0.570804C1.34799 0.999034 1.20086 1.49964 1.20086 2.03041C1.20086 3.03765 1.72194 3.9303 2.51887 4.449C2.03458 4.43694 1.58094 4.30425 1.18247 4.08712C1.18247 4.09918 1.18247 4.11124 1.18247 4.12331C1.18247 5.53466 2.2001 6.70475 3.55489 6.97616C3.30968 7.04251 3.04607 7.0787 2.77634 7.0787C2.5863 7.0787 2.4024 7.0606 2.21849 7.02442C2.59243 8.18245 3.68362 9.02081 4.97711 9.04494C3.96562 9.82299 2.69052 10.2874 1.30508 10.2874C1.066 10.2874 0.833048 10.2753 0.600098 10.2452C1.89358 11.0775 3.45067 11.56 5.1181 11.56Z" fill="white"/>
</svg>
